svgs/solid/envelopes-bulk.svg

<svg xmlns="http://www.w3.org/2000/svg" viewBox="0 0 640 512"><!--! Font Awesome Pro 6.6.0 by @fontawesome - https://fontawesome.com License - https://fontawesome.com/license (Commercial License) Copyright 2024 Fonticons, Inc. --><path d="M128 0C110.3 0 96 14.3 96 32l0 192 96 0 0-32c0-35.3 28.7-64 64-64l224 0 0-96c0-17.7-14.3-32-32-32L128 0zM256 160c-17.7 0-32 14.3-32 32l0 32 96 0c35.3 0 64 28.7 64 64l0 128 192 0c17.7 0 32-14.3 32-32l0-192c0-17.7-14.3-32-32-32l-320 0zm240 64l32 0c8.8 0 16 7.2 16 16l0 32c0 8.8-7.2 16-16 16l-32 0c-8.8 0-16-7.2-16-16l0-32c0-8.8 7.2-16 16-16zM64 256c-17.7 0-32 14.3-32 32l0 13L187.1 415.9c1.4 1 3.1 1.6 4.9 1.6s3.5-.6 4.9-1.6L352 301l0-13c0-17.7-14.3-32-32-32L64 256zm288 84.8L216 441.6c-6.9 5.1-15.3 7.9-24 7.9s-17-2.8-24-7.9L32 340.8 32 480c0 17.7 14.3 32 32 32l256 0c17.7 0 32-14.3 32-32l0-139.2z"/></svg>

<svg xmlns="http://www.w3.org/2000/svg" viewBox="0 0 640 512"><!--! Font Awesome Pro 6.4.0 by @fontawesome - https://fontawesome.com License - https://fontawesome.com/license (Commercial License) Copyright 2023 Fonticons, Inc. --><path d="M128 0C110.3 0 96 14.3 96 32V224h96V192c0-35.3 28.7-64 64-64H480V32c0-17.7-14.3-32-32-32H128zM256 160c-17.7 0-32 14.3-32 32v32h96c35.3 0 64 28.7 64 64V416H576c17.7 0 32-14.3 32-32V192c0-17.7-14.3-32-32-32H256zm240 64h32c8.8 0 16 7.2 16 16v32c0 8.8-7.2 16-16 16H496c-8.8 0-16-7.2-16-16V240c0-8.8 7.2-16 16-16zM64 256c-17.7 0-32 14.3-32 32v13L187.1 415.9c1.4 1 3.1 1.6 4.9 1.6s3.5-.6 4.9-1.6L352 301V288c0-17.7-14.3-32-32-32H64zm288 84.8L216 441.6c-6.9 5.1-15.3 7.9-24 7.9s-17-2.8-24-7.9L32 340.8V480c0 17.7 14.3 32 32 32H320c17.7 0 32-14.3 32-32V340.8z"/></svg>
